app/dist/common/images/kawasaki-kisen-kaisha.svg

<svg height="18" viewBox="0 0 18 18" width="18" xmlns="http://www.w3.org/2000/svg"><path d="m0 0h18v18h-18z" fill="#f0f3fa"/><path d="m5 11h8l-.63-6.42-6.33-.58c-.56-.05-1.04.36-1.04.88zm2.5-6h-1.5v5h1.5v-1.89l.43-.33 2.04 2.22h1.63l-2.64-3.02 2.54-1.98h-1.97l-2.03 1.58z" fill="#ed484e" fill-rule="evenodd"/><path d="m5 12h8.2l.3 2h-8.5z" fill="#555756"/></svg>

<!-- by TradingView --><svg xmlns="http://www.w3.org/2000/svg" width="18" height="18" viewBox="0 0 18 18"><path fill="#F0F3FA" d="M0 0h18v18H0z"/><path fill-rule="evenodd" d="M5 11h8l-.63-6.42L6.04 4C5.48 3.95 5 4.36 5 4.88V11zm2.5-6H6v5h1.5V8.11l.43-.33L9.97 10h1.63L8.96 6.98 11.5 5H9.53L7.5 6.58V5z" fill="#ED484E"/><path d="M5 12h8.2l.3 2H5v-2z" fill="#555756"/></svg>
